_site/images/logos/Shape-icon.svg

<svg height="37" viewBox="0 0 46 37" width="46" xmlns="http://www.w3.org/2000/svg"><path d="m446 2-13.489188 11.9294149-11.510812 21.0705851h10.378694zm2.08871 3-5.741129 16.3347021 11.008064 13.9612838-21.355645 3.7040141h35z" fill="#fff" opacity=".917876" transform="translate(-421 -2)"/></svg>

<?xml version="1.0" encoding="UTF-8"?>
<svg width="46px" height="37px" viewBox="0 0 46 37" version="1.1" xmlns="http://www.w3.org/2000/svg" xmlns:xlink="http://www.w3.org/1999/xlink">
    <!-- Generator: Sketch 52.6 (67491) - http://www.bohemiancoding.com/sketch -->
    <title>Shape</title>
    <desc>Created with Sketch.</desc>
    <g id="Landing-page" stroke="none" stroke-width="1" fill="none" fill-rule="evenodd" opacity="0.917875744">
        <g id="1.1--Home" transform="translate(-1150.000000, -761.000000)" fill="#FFFFFF" fill-rule="nonzero">
            <g id="header" transform="translate(0.000000, 100.000000)">
                <g id="Slogan">
                    <g id="Component-/-Background">
                        <g>
                            <g id="Group-34" transform="translate(729.000000, 615.000000)">
                                <g id="Group-32" transform="translate(0.000000, 44.000000)">
                                    <path d="M446,2 L432.510812,13.9294149 L421,35 L431.378694,35 L446,2 Z M448.08871,5 L442.347581,21.3347021 L453.355645,35.2959859 L432,39 L467,39 L448.08871,5 Z" id="Shape"></path>
                                </g>
                            </g>
                        </g>
                    </g>
                </g>
            </g>
        </g>
    </g>
</svg>
